src/22/panel/network-wireless-acquiring.svg

<svg xmlns="http://www.w3.org/2000/svg" width="22" height="22"><defs><style id="current-color-scheme" type="text/css">.ColorScheme-Text{color:#dfdfdf}</style></defs><path class="ColorScheme-Text" d="M8 11a2 2 0 0 1-2 2 2 2 0 0 1-2-2 2 2 0 0 1 2-2 2 2 0 0 1 2 2zM13 11a2 2 0 0 1-2 2 2 2 0 0 1-2-2 2 2 0 0 1 2-2 2 2 0 0 1 2 2zM18 11a2 2 0 0 1-2 2 2 2 0 0 1-2-2 2 2 0 0 1 2-2 2 2 0 0 1 2 2z" fill="currentColor"/><path class="ColorScheme-Text" d="M11 4C7.95 4 5.08 5.073 3 7l.727 1h14.546L19 7c-2.081-1.927-4.949-3-8-3zM8.092 14L11 18l2.908-4z" opacity=".3" fill="currentColor"/></svg>

<svg xmlns="http://www.w3.org/2000/svg" width="22" height="22" version="1.1">
 <defs>
  <style id="current-color-scheme" type="text/css">
   .ColorScheme-Text { color:#dfdfdf; } .ColorScheme-Highlight { color:#5294e2; }
  </style>
 </defs>
 <path style="fill:currentColor" class="ColorScheme-Text" d="M 8,11 A 2,2 0 0 1 6,13 2,2 0 0 1 4,11 2,2 0 0 1 6,9 2,2 0 0 1 8,11 Z"/>
 <path style="fill:currentColor" class="ColorScheme-Text" d="m 13,11 a 2,2 0 0 1 -2,2 2,2 0 0 1 -2,-2 2,2 0 0 1 2,-2 2,2 0 0 1 2,2 z"/>
 <path style="fill:currentColor" class="ColorScheme-Text" d="m 18,11 a 2,2 0 0 1 -2,2 2,2 0 0 1 -2,-2 2,2 0 0 1 2,-2 2,2 0 0 1 2,2 z"/>
 <path style="opacity:0.3;fill:currentColor" class="ColorScheme-Text" d="M 11,4 C 7.9494,4 5.0806,5.0732 3,7 L 3.7265625,8 H 18.273438 L 19,7 C 16.919,5.0731 14.051,4 11,4 Z M 8.0917969,14 11,18 13.908203,14 Z"/>
</svg>
